X:17159279988191
T:12-5-12-8-5-4-6-10-5-4-8-3-7-7-2-6
%%setfont-1 Courier-Bold 8
T:$1K.516f::54:17:10:53:161:55:36:123:90:139:57:56:101:162:109:93::$0
T:$1Perm. No.: 17159279988191$0
M:3/8
L:1/8
Q:1/8=111
%%staves [1 2]
V:1 clef=treble
V:2 clef=bass
K:C
%1
[V:1]|: [cE][cE][cE] |\
[V:2]|: C,C,C,   |\
%2
[V:1] c/G/c/e/G/c/ |\
[V:2] [G,2E,2]z |\
%3
[V:1] B/A/B/c/d/B/ |\
[V:2] G,2z |\
%4
[V:1] [ec][e/c/][f/d/][ge] |\
[V:2] C,2z |\
%5
[V:1] [d^F][d^F][d^F] |\
[V:2] C,C,C,   |\
%6
[V:1] gbd |\
[V:2] [D,2B,,2]z |\
%7
[V:1] A/e/d/g/^f/a/ \
[V:2] C,D,D,, \
%8a
[V:1]|1 [g2d2B2G2]z :|2
[V:2]|1 G,,G,/=F,/E,/D,/ :|2
%8b
[V:1] [g2d2B2G2]z |:\
[V:2] G,,B,/G,/^F,/E,/ |:\
%9
[V:1] ^f/a/d'/a/f/a/ |\
[V:2] [A,2C,2][A,C,] |\
%10
[V:1] g/b/g/b/d |\
[V:2] B,,2z |\
%11
[V:1] ecG |\
[V:2] [E,/C,/]G,/[E,/C,/]G,/[E,/C,/]G,/ |\
%12
[V:1] d/B/Gz |\
[V:2] [G,2G,,2]G, |\
%13
[V:1] e/d/e/g/c'/g/ |\
[V:2] G,2 E, & C,2 C, |\
%14
[V:1] e/d/e/g/c'/g/ |\
[V:2] [G,2C,2][E,C,] |\
%15
[V:1] d/f/d/f/B/d/ |\
[V:2] [A,2F,2][DG,] |\
%16
[V:1] c2z :|]
[V:2] C,G,,C,, :|]
